public/images/frog/frog-sitting.svg

<svg width="90" height="120" viewBox="0 0 90 120" fill="none" xmlns="http://www.w3.org/2000/svg">
<g id="Group 1312">
<path id="Vector 41" d="M54.6052 119.907H37.3416L45.2228 114.09L54.6052 119.907Z" fill="#DBFF9E"/>
<path id="Vector" d="M55.0403 119.719C53.9965 119.637 52.9626 119.545 51.9238 119.458C50.9893 119.381 50.0598 119.294 49.1254 119.245C46.6053 119.115 44.0803 119.173 41.5602 119.265C40.0641 119.318 38.563 119.381 37.042 119.704C36.4256 118.666 35.9683 117.583 35.5061 116.501C34.2883 113.65 33.6073 110.654 33.1351 107.62C32.8369 105.701 32.7226 103.764 32.6679 101.821C32.5138 96.3177 33.3837 90.959 34.9991 85.7018C35.4961 84.0879 36.2765 82.5803 37.0817 81.0389C37.1116 80.9954 37.1066 80.9906 37.1116 80.9906C37.2706 80.8408 37.3551 80.6475 37.4645 80.4252C37.4943 80.3963 37.4893 80.3866 37.4943 80.3866C37.5838 80.2948 37.6385 80.1885 37.718 80.058C37.7428 80.0338 37.7428 80.0242 37.7478 80.0242C37.8323 79.942 37.887 79.8406 37.9715 79.7101C38.0013 79.6811 38.0013 79.6618 38.0112 79.6618C38.0311 79.6376 38.046 79.6135 38.0908 79.5652C38.1206 79.541 38.1206 79.5313 38.1206 79.5313C38.2101 79.454 38.2598 79.3574 38.3492 79.2317C38.384 79.2027 38.384 79.1786 38.394 79.1738C38.4139 79.1448 38.4238 79.1206 38.4636 79.082C38.4984 79.0626 38.4934 79.0481 38.5033 79.0481C38.5282 79.024 38.5381 79.0046 38.5878 78.9563C38.6176 78.9322 38.6176 78.9225 38.6226 78.9225C38.6475 78.9032 38.6624 78.879 38.7121 78.8307C38.7419 78.8017 38.7419 78.7969 38.7419 78.7969C38.8662 78.6857 38.9805 78.5649 39.0998 78.3958C39.1346 78.3716 39.1545 78.333 39.1992 78.2992C39.2439 78.2653 39.2688 78.217 39.3185 78.1832C39.3682 78.1445 39.3931 78.0962 39.4428 78.0624C39.4925 78.0286 39.5223 77.9754 39.567 77.9513C39.6714 77.8643 39.731 77.8015 39.8354 77.7242C39.9597 77.613 40.0989 77.5985 40.2132 77.4874C40.238 77.4632 40.238 77.4584 40.243 77.4584C40.2679 77.4391 40.2878 77.4197 40.3375 77.3666C40.3673 77.3376 40.3673 77.3328 40.3673 77.3328C40.3872 77.3134 40.412 77.2941 40.4617 77.2458C40.4915 77.2168 40.4915 77.212 40.4915 77.212C40.5114 77.1926 40.5313 77.1733 40.586 77.1298C40.6208 77.1057 40.6208 77.096 40.6307 77.096C40.6506 77.0767 40.6605 77.0525 40.7152 77.0235C41.764 76.2794 42.9669 76.1296 44.1648 75.9653C45.7007 75.7575 47.2366 75.7334 48.7625 76.0426C51.0291 76.5017 52.57 77.9513 53.907 79.657C54.5383 80.4639 55.0602 81.3385 55.5324 82.2952C55.5622 82.3532 55.5821 82.3677 55.607 82.416C55.6269 82.4692 55.6368 82.4933 55.6616 82.5465C55.6915 82.5948 55.7064 82.6093 55.7312 82.6576C55.7461 82.7108 55.7611 82.7349 55.7859 82.7929C55.8157 82.8412 55.8356 82.8557 55.8555 82.8992C55.8704 82.9572 55.8804 82.9814 55.9052 83.0442C55.94 83.0925 55.9599 83.1022 55.9698 83.1457C55.9748 83.2036 55.9897 83.2278 56.0195 83.3003C56.0792 83.3727 56.104 83.4114 56.1189 83.5032C56.1388 83.566 56.1488 83.5854 56.1686 83.6434C56.1985 83.6917 56.2134 83.7062 56.2333 83.7545C56.2482 83.8125 56.2581 83.8366 56.278 83.9043C56.3327 83.9767 56.3575 84.0202 56.3675 84.1121C56.3874 84.1749 56.3973 84.1942 56.4172 84.257C56.447 84.3053 56.4619 84.3198 56.4768 84.3681C56.4868 84.4261 56.5017 84.4551 56.5216 84.5179C56.5762 84.5904 56.6061 84.6291 56.611 84.7209C56.6259 84.7837 56.6359 84.8078 56.6558 84.8707C56.7055 84.948 56.7303 84.9915 56.7403 85.0833C56.7552 85.1461 56.7651 85.1702 56.785 85.2331C56.8347 85.3104 56.8546 85.3587 56.8695 85.4505C56.8894 85.5133 56.8943 85.5375 56.9142 85.6003C56.9639 85.6776 56.9838 85.7211 56.9938 85.8177C57.0087 85.8806 57.0186 85.9047 57.0385 85.9724C57.1777 86.4652 57.3069 86.9194 57.466 87.4123C57.5008 87.5041 57.5157 87.5573 57.5355 87.6539C57.6996 88.485 57.9183 89.263 58.1022 90.0892C58.132 90.181 58.1469 90.239 58.1618 90.3308C58.3557 91.3504 58.5694 92.3264 58.7484 93.3556C58.7682 93.4571 58.7782 93.5151 58.7881 93.6166C58.7832 93.8388 58.8329 94.008 58.8726 94.2206C58.8925 94.3124 58.8975 94.3704 58.9074 94.4718C58.972 95.1677 59.0466 95.8248 59.1261 96.5254C59.146 96.6656 59.1559 96.7622 59.1609 96.9072C59.151 97.487 59.2554 98.0185 59.2504 98.5984C59.2703 98.8158 59.2802 98.9946 59.2802 99.2217C59.31 100.164 59.2902 101.058 59.2852 102C59.2802 102.227 59.2752 102.401 59.2703 102.628C59.2255 103.252 59.1609 103.822 59.1609 104.44C59.1559 104.547 59.156 104.605 59.146 104.706C59.1013 105.083 59.0367 105.411 59.0367 105.784C59.0317 105.885 59.0267 105.943 59.0168 106.044C58.8826 106.615 58.8826 107.156 58.7832 107.731C58.7732 107.832 58.7682 107.89 58.7583 107.992C58.6291 108.402 58.639 108.789 58.5396 109.2C58.5297 109.296 58.5247 109.354 58.5098 109.451C58.3557 109.983 58.2911 110.485 58.1618 111.021C58.1469 111.118 58.142 111.171 58.1221 111.263C57.9779 111.674 57.8984 112.06 57.789 112.481C57.7741 112.577 57.7692 112.63 57.7443 112.722C57.5405 113.346 57.3417 113.925 57.1628 114.549C57.1478 114.645 57.1329 114.703 57.0981 114.8C57.0882 114.863 57.0932 114.882 57.0683 114.921C57.0335 114.964 57.0286 114.984 57.0087 115.046C56.7999 115.438 56.6906 115.82 56.5613 116.24C56.5265 116.298 56.5216 116.322 56.4967 116.38C56.4072 116.544 56.3476 116.68 56.3078 116.854C56.273 116.907 56.2631 116.931 56.2382 116.994C56.2184 117.052 56.2184 117.076 56.1885 117.115C56.1537 117.158 56.1488 117.182 56.1239 117.235C55.9847 117.472 55.8605 117.675 55.8008 117.946C55.766 117.999 55.7561 118.028 55.7263 118.091C55.7064 118.149 55.7064 118.173 55.6815 118.211C55.6418 118.255 55.6368 118.279 55.607 118.337C55.5871 118.395 55.5871 118.414 55.5573 118.458C55.5225 118.501 55.5175 118.525 55.4927 118.579C55.3982 118.738 55.3386 118.873 55.2988 119.052C55.269 119.105 55.259 119.129 55.2392 119.187C55.1447 119.352 55.0851 119.487 55.0503 119.666C55.0503 119.695 55.0453 119.714 55.0403 119.719Z" fill="#DBFF9E"/>
<g id="Group 1271">
<path id="Vector_2" d="M21.9181 73.0094C22.1508 73.2571 21.9181 73.3659 21.7943 73.4785C20.2031 74.9797 18.7694 76.6197 17.4709 78.3799C17.4259 78.4024 17.4109 78.53 17.3658 78.56C17.2833 78.6238 17.272 78.7964 17.1744 78.8377C17.1632 78.8565 17.1031 78.9315 17.0881 78.9428C16.998 79.0179 16.983 79.1642 16.8967 79.228C16.8517 79.2843 16.8517 79.3857 16.7954 79.4119C16.7766 79.4307 16.7278 79.502 16.7091 79.5133C16.574 79.6408 16.5514 79.8773 16.4201 79.9824C16.4013 80.0049 16.3488 80.0687 16.3338 80.0874C16.2887 80.1137 16.2775 80.2413 16.2324 80.2714C16.1912 80.3201 16.1874 80.4327 16.1311 80.4552C16.0861 80.5641 16.0335 80.6879 15.9472 80.7442C15.9059 80.793 15.9022 80.9056 15.8459 80.9281C15.8346 80.9431 15.7783 81.0182 15.7596 81.0332C15.6733 81.127 15.677 81.3447 15.5644 81.4047C15.5457 81.4273 15.4894 81.4873 15.4818 81.5098C15.4331 81.5323 15.4218 81.6637 15.3843 81.6975C15.298 81.8701 15.2454 82.1291 15.0953 82.2604C15.054 82.3092 15.0503 82.418 15.0015 82.4481C14.9602 82.4931 14.9564 82.6094 14.9076 82.6357C14.8664 82.6807 14.8626 82.7971 14.8138 82.8233C14.7425 82.9172 14.6937 83.1086 14.6262 83.2024C14.5886 83.2474 14.5811 83.3638 14.5324 83.3938C14.446 83.6828 14.2997 83.9117 14.1608 84.1556C14.0407 84.3358 14.0482 84.6698 13.8756 84.8162C13.7818 84.94 13.8193 85.1915 13.6842 85.289C13.5979 85.4166 13.6317 85.6643 13.4965 85.7619C13.3877 85.9946 13.3952 86.3286 13.2151 86.52C13.14 86.5763 13.1926 86.7489 13.1175 86.8015C13.0462 86.8578 13.0987 87.0304 13.0199 87.0829C12.9486 87.143 13.0012 87.3156 12.9261 87.3682C12.2956 89.3197 11.9541 91.4664 11.5075 93.4217C11.3048 93.5493 11.0159 93.6468 10.8395 93.7932C10.7944 93.8345 10.6931 93.857 10.6518 93.8945C10.5655 93.9583 10.4341 94.0109 10.3628 94.0784C10.0551 94.2435 9.75861 94.4312 9.51467 94.6489C9.37957 94.7314 9.23696 94.8365 9.13563 94.9341C8.93672 95.0692 8.73406 95.2531 8.56518 95.407C8.55017 95.4257 8.49763 95.497 8.4676 95.4933C8.02851 95.8123 7.64946 96.2138 7.33421 96.6342C1.34452 102.815 2.69182 114.63 11.1022 117.91C9.9275 118.506 9.01928 119.253 8.62147 120H39.3318C39.2868 119.647 39.1517 119.287 38.9115 118.927C38.5174 117.868 37.947 116.881 37.628 115.793C35.8791 110.783 35.4775 105.349 36.048 100.102C36.8511 94.9679 37.7743 88.1037 42.9759 85.593C48.8342 83.5176 52.8799 87.9761 54.2272 93.2903C56.3664 100.612 56.4978 108.614 53.9983 115.857C53.6906 116.821 53.2402 117.726 52.8274 118.649C52.6059 119.084 52.3995 119.546 52.317 120H83.0198C82.7196 119.291 81.9615 118.593 80.6967 118.086C88.5629 114.119 90.6158 103.532 84.3108 96.6342C83.9918 96.1801 83.5902 95.8198 83.1774 95.4933C83.1549 95.482 83.0836 95.4295 83.0761 95.4032C82.9147 95.2231 82.6783 95.0767 82.5056 94.9303C82.4156 94.8065 82.2279 94.7427 82.1266 94.6451C81.8789 94.3937 81.5449 94.2586 81.2784 94.0747C81.2034 93.9884 81.0495 93.9658 80.9895 93.8908C80.9407 93.8495 80.8281 93.8457 80.8056 93.7932C80.2201 93.5718 79.9724 93.1852 79.9424 92.5885C79.4432 88.8618 78.186 85.259 76.4034 81.9527C74.5644 78.4737 72.0274 75.4413 69.1339 72.788C68.7811 72.5403 69.0664 72.3414 69.3441 72.2213C95.7047 59.7578 95.9562 33.8625 70.6313 19.9391C68.3008 18.1939 67.9029 14.805 66.2629 12.4482C64.8368 9.70853 63.238 7.0477 61.1664 4.73964C55.3006 -1.97438 46.3085 -2.09072 44.6535 7.86583C43.5876 -1.17501 34.8208 -2.22207 29.1388 3.80516C24.9805 7.93715 22.5111 13.3977 20.083 18.6518C18.9721 20.3631 16.6453 20.8998 15.0728 22.1645C-8.51446 38.0057 -3.04267 62.61 21.9257 73.0132L21.9181 73.0094Z" fill="#00CF4B"/>
<path id="Vector_3" d="M37.5264 6.2939C42.5215 9.46888 35.5748 17.1737 32.7526 11.214C31.5779 8.42933 34.6328 4.79272 37.5264 6.2939Z" fill="#001602"/>
<path id="Vector_4" d="M51.6938 12.0088C49.2732 9.98594 50.8381 4.80688 54.2421 5.62127C59.9128 7.18249 56.7903 15.3039 51.6938 12.0088Z" fill="#001602"/>
<path id="Vector_5" d="M49.6262 22.9791C50.7296 22.919 51.514 22.2773 52.4259 21.8044C53.8145 21.6318 52.3922 23.2681 51.7804 23.4445C49.8364 24.5628 47.5846 24.1988 45.6631 23.2643C43.7379 23.512 41.9327 24.9156 39.726 24.514C38.5776 24.5778 35.2299 22.9753 36.7199 21.6993C37.0689 21.5943 37.264 21.7932 37.4292 22.0859C38.9341 24.195 42.1916 23.4032 44.207 22.57C46.0497 21.6506 47.6484 23.4332 49.63 22.9791H49.6262Z" fill="#002D12"/>
<path id="Vector_6" d="M36.1977 9.31864C35.2632 7.76492 37.7027 6.48142 38.3519 8.20027C39.0275 9.66392 37.2561 10.5534 36.1977 9.31864Z" fill="#EBECED"/>
<path id="Vector_7" d="M56.1144 7.96321C56.2946 10.3651 52.9207 9.41934 53.8927 7.47907C54.4068 6.40198 55.938 6.89737 56.1144 7.96321Z" fill="#EBECED"/>
</g>
<path id="Vector 13" d="M45.1688 74.6836H30.3983C42.2147 81.4805 54.3367 77.5157 58.9206 74.6836H45.1688Z" fill="#00C62E"/>
</g>
</svg>

<svg width="90" height="120" fill="none" xmlns="http://www.w3.org/2000/svg"><path d="M54.605 119.907H37.342l7.88-5.817 9.383 5.817Z" fill="#DBFF9E"/><path d="M55.04 119.719c-1.044-.082-2.077-.174-3.116-.261-.935-.077-1.864-.164-2.799-.213-2.52-.13-5.045-.072-7.565.02-1.496.053-2.997.116-4.518.439-.616-1.038-1.074-2.121-1.536-3.203-1.218-2.851-1.899-5.847-2.37-8.881-.3-1.919-.413-3.856-.468-5.799-.154-5.503.716-10.862 2.331-16.12.497-1.613 1.277-3.12 2.083-4.662.03-.044.025-.048.03-.048.159-.15.243-.344.352-.566.03-.029.025-.038.03-.038.09-.092.145-.198.224-.329.025-.024.025-.034.03-.034.084-.082.139-.183.224-.314.03-.029.03-.048.04-.048.02-.024.034-.049.079-.097.03-.024.03-.034.03-.034.09-.077.139-.174.228-.3.035-.028.035-.052.045-.057.02-.03.03-.053.07-.092.034-.02.03-.034.04-.034.024-.024.034-.043.084-.092.03-.024.03-.034.035-.034.025-.019.04-.043.09-.091.029-.03.029-.034.029-.034a2.28 2.28 0 0 0 .358-.401c.035-.024.054-.063.1-.097.044-.034.069-.082.118-.116.05-.039.075-.087.125-.12.05-.034.08-.088.124-.112.104-.087.164-.15.268-.227.125-.111.264-.126.378-.237.025-.024.025-.029.03-.029a.786.786 0 0 0 .094-.091c.03-.03.03-.034.03-.034.02-.02.045-.039.095-.087.03-.03.03-.034.03-.034.02-.02.04-.039.094-.082.035-.024.035-.034.045-.034.02-.02.03-.044.084-.073 1.049-.744 2.252-.893 3.45-1.058 1.536-.208 3.072-.232 4.598.078 2.266.459 3.807 1.908 5.144 3.614.631.807 1.153 1.681 1.625 2.638.03.058.05.073.075.121.02.053.03.077.055.13.03.049.044.063.07.112.014.053.03.077.054.135.03.048.05.063.07.106.014.058.024.082.05.145.034.049.054.058.064.102.005.058.02.082.05.154.06.073.084.111.099.203.02.063.03.082.05.14.03.049.044.063.064.111.015.058.025.083.045.15.055.073.08.116.09.208.02.063.03.082.05.145.029.048.044.063.059.111.01.058.025.087.045.15.054.072.084.111.089.203.015.063.025.087.045.15a.42.42 0 0 1 .084.212c.015.063.025.087.045.15.05.077.07.126.085.218.02.062.024.087.044.15.05.077.07.12.08.217.015.063.025.087.044.154.14.493.269.947.428 1.44.035.092.05.145.07.242.164.831.382 1.609.566 2.435.03.092.045.15.06.242.194 1.02.407 1.995.586 3.025.02.101.03.16.04.26-.005.223.045.392.085.605.02.091.025.15.034.25.065.697.14 1.354.22 2.054.019.14.029.237.034.382-.01.58.094 1.112.09 1.691.02.218.03.397.03.624.029.942.01 1.836.004 2.778l-.015.628c-.045.624-.11 1.194-.11 1.812-.004.107-.004.165-.014.266-.045.377-.11.705-.11 1.078a4.64 4.64 0 0 1-.02.26c-.133.571-.133 1.112-.233 1.687l-.025.261c-.129.41-.119.797-.218 1.208-.01.096-.015.154-.03.251-.154.532-.219 1.034-.348 1.57-.015.097-.02.15-.04.242-.144.411-.224.797-.333 1.218-.015.096-.02.149-.045.241-.203.624-.402 1.203-.581 1.827-.015.096-.03.154-.065.251-.01.063-.005.082-.03.121-.035.043-.04.063-.06.125-.208.392-.317.774-.447 1.194-.035.058-.04.082-.064.14-.09.164-.15.3-.19.474a.614.614 0 0 0-.069.14c-.02.058-.02.082-.05.121-.034.043-.04.067-.064.12-.14.237-.264.44-.323.711-.035.053-.045.082-.075.145-.02.058-.02.082-.044.12-.04.044-.045.068-.075.126-.02.058-.02.077-.05.121-.035.043-.04.067-.064.121a1.508 1.508 0 0 0-.194.473.652.652 0 0 0-.06.135c-.094.165-.154.3-.189.479 0 .029-.005.048-.01.053Z" fill="#DBFF9E"/><path d="M21.918 73.01c.233.247 0 .356-.124.468a36.504 36.504 0 0 0-4.323 4.902c-.045.022-.06.15-.105.18-.083.064-.094.236-.192.278a.802.802 0 0 1-.086.105c-.09.075-.105.221-.191.285-.045.056-.045.158-.102.184-.018.019-.067.09-.086.101-.135.128-.158.364-.289.47l-.086.104c-.045.027-.056.154-.102.184-.04.05-.045.162-.1.184-.046.11-.099.233-.185.29-.041.048-.045.16-.101.183-.011.015-.068.09-.086.105-.087.094-.083.312-.196.372-.018.022-.075.082-.082.105-.049.022-.06.154-.098.188-.086.172-.139.431-.289.562-.041.05-.045.158-.094.188-.04.045-.045.161-.093.188-.042.045-.045.161-.094.187-.072.094-.12.286-.188.38-.037.044-.045.16-.094.19-.086.29-.232.519-.371.763-.12.18-.113.514-.285.66-.094.124-.057.376-.192.473-.086.128-.052.375-.188.473-.108.233-.1.567-.28.758-.076.056-.023.229-.098.282-.072.056-.02.228-.098.28-.071.061-.019.234-.094.286-.63 1.952-.972 4.098-1.418 6.054-.203.127-.492.225-.668.371-.046.041-.147.064-.188.101-.086.064-.218.117-.29.184a4.41 4.41 0 0 0-.847.57 2.321 2.321 0 0 0-.38.286 5.446 5.446 0 0 0-.57.473c-.015.019-.067.09-.097.086a5.44 5.44 0 0 0-1.134 1.141c-5.99 6.181-4.642 17.996 3.768 21.276-1.175.596-2.083 1.343-2.48 2.09h30.71a2.498 2.498 0 0 0-.42-1.073c-.395-1.059-.965-2.046-1.284-3.134-1.749-5.01-2.15-10.444-1.58-15.691.803-5.134 1.726-11.998 6.928-14.509 5.858-2.075 9.904 2.383 11.251 7.697 2.14 7.322 2.27 15.324-.229 22.567-.307.964-.758 1.869-1.17 2.792-.222.435-.428.897-.511 1.351H83.02c-.3-.709-1.058-1.407-2.323-1.914 7.866-3.967 9.919-14.554 3.614-21.452-.32-.454-.72-.814-1.134-1.14-.022-.012-.093-.064-.1-.09-.162-.18-.399-.327-.571-.474-.09-.124-.278-.187-.38-.285-.247-.251-.581-.386-.848-.57-.075-.087-.229-.11-.288-.184-.05-.041-.162-.045-.184-.098-.586-.221-.834-.608-.864-1.205-.499-3.726-1.756-7.329-3.539-10.635-1.839-3.48-4.376-6.512-7.27-9.165-.352-.248-.067-.447.211-.567 26.36-12.463 26.612-38.359 1.287-52.282-2.33-1.745-2.728-5.134-4.368-7.49-1.426-2.74-3.025-5.401-5.097-7.71-5.865-6.713-14.857-6.83-16.512 3.127-1.066-9.041-9.833-10.088-15.515-4.06-4.159 4.131-6.628 9.592-9.056 14.846-1.11 1.711-3.438 2.248-5.01 3.512-23.587 15.842-18.116 40.446 6.853 50.85l-.008-.005Z" fill="#00CF4B"/><path d="M37.526 6.294c4.995 3.175-1.951 10.88-4.773 4.92-1.175-2.785 1.88-6.421 4.773-4.92ZM51.694 12.009c-2.42-2.023-.856-7.202 2.548-6.388 5.67 1.561 2.548 9.683-2.548 6.388Z" fill="#001602"/><path d="M49.626 22.98c1.104-.061 1.888-.703 2.8-1.176 1.389-.172-.034 1.464-.646 1.64-1.944 1.119-4.195.755-6.117-.18-1.925.248-3.73 1.652-5.937 1.25-1.148.064-4.496-1.539-3.006-2.815.349-.105.544.094.71.387 1.504 2.109 4.762 1.317 6.777.484 1.843-.92 3.441.863 5.423.41h-.004Z" fill="#002D12"/><path d="M36.198 9.319c-.935-1.554 1.505-2.838 2.154-1.119.676 1.464-1.096 2.353-2.154 1.119ZM56.114 7.963c.18 2.402-3.193 1.456-2.221-.484.514-1.077 2.045-.582 2.221.484Z" fill="#EBECED"/><path d="M45.169 74.684h-14.77c11.816 6.797 23.938 2.832 28.522 0H45.169Z" fill="#00C62E"/></svg>
